X:1 
T:Boys of the Town 
M:6/8 
L:1/8 
K:G 
f|:ged B2 A|BGE G2 A|(3Bcd B AGA| Bee e2f|\ 
ged B2 A|BGE G2 A|(3Bcd B AGA|1 BGF G2 f:|2 BGF G2 B||
|:def gfg|eaa eaa|bag e2d|egg egf| 
ged B2 A|BGE G2 A|(3Bcd B AGA|1 BGF G2 B:|2 BGF G2 f||
